X: 1
T: God Bless America
P: piffero primo a0483
O: Irving Berlin
%R: song, march
F: http://ancients.sudburymuster.org/mus/col/pdf/pathymnsF.pdf
Z: 2020 John Chambers <jc:trillian.mit.edu>
M: 4/4
L: 1/8
K: D
z2 |\
d4 c2B2 | cB A6 | e4 d2e2 | f6 ef |\
g2 B4 g2 | f2 A4 de | f2ed e2dc | d6 cd |\
e2 A4 de | f2 A4 ef |
g2 B4 fg | a4- a4 |\
b4 a2g2 | fe d4 g2 | f4 e4 | a4- a4 |\
b4 a2g2 | fe d4 g2 | f4 e4 | d4- d2 |]
